src/static/logos/lateral.svg

<svg width="256" height="243" xmlns="http://www.w3.org/2000/svg" preserveAspectRatio="xMidYMid"><path d="M191.892 242.859L0 214.112l128.888-75.748 63.004 104.495" fill="#82C0F4"/><path d="M256 214.539l-64.108 28.32-63.669-101.785 2.848-.605 121.567 69.895 3.362 4.175" fill="#D7E9F9"/><path d="M192.922 105.118L256 214.539l-127.777-73.465 1.071-3.48 59.344-32.98 4.284.504" fill="#A7CCEB"/><path d="M0 214.112l62.907-109.253 1.603-1.973 60.378 33.478 3.335 4.71L0 214.112" fill="#ADCEEB"/><path d="M80.862.844l3.026 4.52 45.255 133.993-.92 1.717-65.316-36.215L80.862.844" fill="#67AAD6"/><path d="M192.922 105.118l-64.699 35.956L80.862.844l112.06 104.274" fill="#E3F7FF"/></svg>

<?xml version="1.0" encoding="UTF-8" standalone="no"?>
<svg width="256px" height="243px" viewBox="0 0 256 243" version="1.1" xmlns="http://www.w3.org/2000/svg" xmlns:xlink="http://www.w3.org/1999/xlink" preserveAspectRatio="xMidYMid">
	<g>
		<path d="M191.892,242.859 L0,214.112 L128.888,138.364 L191.892,242.859" fill="#82C0F4"></path>
		<path d="M256,214.539 L191.892,242.859 L128.223,141.074 L131.071,140.469 L252.638,210.364 L256,214.539" fill="#D7E9F9"></path>
		<path d="M192.922,105.118 L256,214.539 L128.223,141.074 L129.294,137.594 L188.638,104.614 L192.922,105.118" fill="#A7CCEB"></path>
		<path d="M0,214.112 L62.907,104.859 L64.51,102.886 L124.888,136.364 L128.223,141.074 L0,214.112" fill="#ADCEEB"></path>
		<path fill="#67AAD6"></path>
		<path d="M80.862,0.844 L83.888,5.364 L129.143,139.357 L128.223,141.074 L62.907,104.859 L80.862,0.844" fill="#67AAD6"></path>
		<path d="M192.922,105.118 L128.223,141.074 L80.862,0.844 L192.922,105.118" fill="#E3F7FF"></path>
	</g>
</svg>
